X:1
T:Rising Sun [4]
S:fiddler Hiram Horner (Southwestern, Pa., 1944)
M:2/4
L:1/8
K:D
(3A/B/c/||Od>d ~ed/e/|~fd~dA|Be e/f/e/d/|cA A(3A/B/c/|
d2 ~ed/e/|~fddA|Be AB/c/|d2 d||
z2z|f a3|f a3|{a}g~fe~d|c~BAz|
f a3|f a3|^g~f ec/e/|a2 a/g/f/e/O||
